X: 12
T:Maid of the Mill, Ilmington 3
M:6/8
L:1/8
A:Ilmington
P:A(AB2)4A
K:G
P:A
|:D|G2G FED|G2G ABc|B>AG A2F|G3-G2:|
P:B
z|d2d d2e|e2e e2e|gfg  efg|g3-g2g|
e2e e2d|d2e d3 |gfg  efg|g6   ||
